images/sidebar_people.svg

<svg width="21" height="21" viewBox="0 0 21 21" fill="none" xmlns="http://www.w3.org/2000/svg">
<path d="M6.39389 8.99249C7.09139 8.99249 7.75139 8.78999 8.30639 8.43749C8.83139 8.10749 9.25889 7.65 9.55139 7.1025C9.61139 6.99 9.66389 6.8775 9.70889 6.7575C9.28139 5.97 9.04139 5.06249 9.04139 4.10249C9.04139 3.75749 9.07139 3.41999 9.13889 3.09749C8.47139 2.31749 7.48889 1.82249 6.39389 1.82249C4.41389 1.82249 2.80139 3.42749 2.80139 5.4075C2.80139 7.3875 4.41389 8.99249 6.39389 8.99249Z" fill="white"/>
<path d="M7.25638 10.41C6.97888 10.47 6.68638 10.4925 6.39388 10.4925C4.95388 10.4925 3.64888 9.89251 2.71888 8.91751C1.60888 9.91501 0.911377 11.3625 0.911377 12.975V17.9925C0.911377 18.9975 1.72888 19.8225 2.74138 19.8225H6.90388C6.83638 19.5525 6.79888 19.2675 6.79888 18.975V13.05C6.79888 12.1275 6.96388 11.235 7.25638 10.41Z" fill="white"/>
<path d="M14.6416 8.20725C16.9043 8.20725 18.7448 6.366 18.7448 4.104C18.7448 1.84125 16.9036 0 14.6416 0C12.3788 0 10.5376 1.84125 10.5376 4.104C10.5376 6.366 12.3788 8.20725 14.6416 8.20725Z" fill="white"/>
<path d="M18.5815 8.08501C17.569 9.08251 16.1815 9.70501 14.644 9.70501C13.1065 9.70501 11.7115 9.08251 10.699 8.07751C9.23645 9.24751 8.29895 11.04 8.29895 13.05V18.975C8.29895 20.0925 9.21395 21 10.3315 21H18.9565C20.0739 21 20.9815 20.0925 20.9815 18.975V13.05C20.9815 11.04 20.044 9.24751 18.5815 8.08501Z" fill="white"/>
</svg>

<svg width="21" height="21" fill="none" xmlns="http://www.w3.org/2000/svg"><path d="M6.394 8.992c.697 0 1.357-.202 1.912-.555.525-.33.953-.787 1.245-1.334.06-.113.113-.225.158-.345a5.555 5.555 0 0 1-.668-2.656c0-.345.03-.682.098-1.005A3.591 3.591 0 0 0 2.8 5.407a3.591 3.591 0 0 0 3.593 3.585ZM7.256 10.41c-.277.06-.57.082-.862.082-1.44 0-2.745-.6-3.675-1.574A5.438 5.438 0 0 0 .91 12.975v5.018c0 1.005.818 1.83 1.83 1.83h4.163a3.498 3.498 0 0 1-.105-.848V13.05c0-.923.165-1.815.457-2.64ZM14.642 8.207a4.108 4.108 0 0 0 4.103-4.103A4.109 4.109 0 0 0 14.642 0a4.109 4.109 0 0 0-4.104 4.104 4.109 4.109 0 0 0 4.104 4.103Z" fill="#fff"/><path d="M18.581 8.085a5.593 5.593 0 0 1-7.882-.007 6.355 6.355 0 0 0-2.4 4.972v5.925c0 1.117.915 2.025 2.033 2.025h8.624a2.026 2.026 0 0 0 2.026-2.025V13.05c0-2.01-.938-3.802-2.4-4.965Z" fill="#fff"/></svg>
